X: 32
T: Mountain Jig Quadrille
M:2/4
L:1/8
S:Viola "Mom" Ruth - Pioneer Western Folk Tunes (1948)
Z:AK/Fiddler's Companion
K:G
(B/c/)|dfBd|GBDG|F/G/A/B/ c(B/A/)|G/A/B/c/ d(B/c/)|dgBd|
GBDG|F/G/A/B/ c/A/F/D/|GG G:|
|:(3[A,/F/][A,/F/][A,/F/] [A,F] (3[F/A/][F/A/][F/A/] [FA]|
d/A/d/f/ a2|g/f/g/e/ c/A/B/c/|f/e/f/d/ A2|
(3[A,/F/][A,/F/][A,/F/] [A,F] (3[F/A/][F/A/][F/A/] [FA]|
d/A/d/f/ a2|g/f/g/e/ c/A/B/c/|df d:|

%%sep 1 1 500
